icon-themes/breeze_svg/cmd/sc_downsearch.svg

<svg viewBox="0 0 16 16" xmlns="http://www.w3.org/2000/svg">/&gt;<path d="m2.71875 4.5-.21875.2285156-.375.390625-.125.1289063 4.125 4.2988281 1.875 1.953125 1.875-1.953125 4.125-4.2988281-.71875-.7480469-4.125 4.296875-1.15625 1.238281-1.15625-1.238281z" fill="#4d4d4d"/></svg>

<svg xmlns="http://www.w3.org/2000/svg" viewBox="0 0 16 16">
     />
 <path 
     style="fill:#4d4d4d" 
     d="M 2.71875 4.5 L 2.5 4.7285156 L 2.125 5.1191406 L 2 5.2480469 L 6.125 9.546875 L 8 11.5 L 9.875 9.546875 L 14 5.2480469 L 13.28125 4.5 L 9.15625 8.796875 L 8 10.035156 L 6.84375 8.796875 L 2.71875 4.5 z "
     />
 </svg>
